X:665
L:1/8
M:3/4
K:G
 (GB) DGBG | (AB) cBAG | (FA) DFAF | (GB) dcBA | (GB) DGBG | (AB) cBAG | (FA) DFAF | G2 z2 z2 :: 
 (Bd) GBdB | (cd) edcB | (Ac) FAcA | (Bc) dcBA | (GB) DGBG | (AB) cBAG | (FA) DFAF | G2 z2 z2 :|

